X: 1
T: Locomotive And Railway Inn, The
M: 4/4
L: 1/8
R: reel
K: Fmaj
|:DEFG ABAG|FEFG AD (3DDD|DEFG Ad (3ddd|edcd ed (3ddd|
ea (3aaa agfe|gefd eA (3AAA|A^Bcd ea (3aaa|gecd ed (3ddd:|
|:Bf (3fff Ae (3eee|fefg ae (3eee|Bf (3fff Ae (3eee|adde fedc|
Bf (3fff Ae (3eee|fefg ae (3eee|A^Bcd ea (3aaa|gecd ed (3ddd:|
